X: 231
T: One Sunday After Mass
B: O'Neill's 231
N: "Slow"
N: "Collected by J.O'Neill"
Z: 1997 by John Chambers <jc@trillian.mit.edu>
N: Note the extra 2-bar "phrases".
M: 3/4
L: 1/8
K:D
(F>E) \
|D2 D2 FG|A4 Bc|d2 f2 ec|d4 dc \
|Bc BAFE|D3E FA|B3d ce|d4 ef|
||D2 F2 AB A4||AB/c/ \
|d2 A2 A2|d4 cd|e2 cA Bc|A4 cd|
|.e.e e2 e2|e4 a2|A3B AF|A4 fe \
||dB A/B/d fed|Hd4||
